!!!!SEGMENT: pl-sa--549-a-ix-29--025_anonim--valc.krn
!!!cenid: 18xx:479
!!!COM: Anonim
!!!COM-rismID: pe30004985
!!!CDT:
!!!CNT:
!!!OTL: Valc
!!!PDT:
!!!AGN: Secular; Waltz
!!!SMS-siglum: PL-SA
!!!SMS-shelfmark: 549/A IX 29
!!!SMS-shelfwork: 025 W
!!!SMS-variant:
!!!SMS-altvar:
!!!NIFC-rismSourceID: 1001068870
!!!NIFC-rismChildID: 1001068870
!!!NIFC-islandoraID:
!!!URL-pdf-islandora:
!!!URL-scan: https://bc.bdsandomierz.pl/dlibra/publication/1441/edition/1409/content @EN{Scan in the Sandomierz Diocese Digital Library} @PL{Skany w portalu Cyfrowa Biblioteka Diecezjalna w Sandomierzu}
!!!ONB-nifc: Str. 19, s. 5-6
!!!AIN: 1 empty
!!!key:
**kern	**kern
*part1	*part1
*staff2	*staff1
*Iempty	*Ipiano
*	*I"Piano
*clefF4	*clefG2
*k[f#]	*k[f#]
*G:	*G:
*M3/8	*M3/8
*>[A,A,B,B]	*>[A,A,B,B]
=1	=1
*>A	*>A
!	!LO:TX:a:Bi:t=Valc:rj
8GG/	16d/LL
.	16g/
8BL 8G\	16b/
.	16d/
8BJ 8G\	16g/
.	16b/JJ
=2	=2
*rep	*
8GG/	16d/LL
.	16b/JJ
8BL 8G\	4dd/
8BJ 8G\	.
*Xrep	*
=3	=3
*rep	*
8GG/	16d/LL
.	16g/
8BL 8G\	16b/
.	16d/
8BJ 8G\	16g/
.	16b/JJ
*Xrep	*
=4	=4
*rep	*
8GG/	4.d/
8BL 8G\	.
8BJ 8G\	.
*Xrep	*
=5	=5
8DD/L	16d/LL
.	16f#/
8D 8BB/	16a/
.	16d/
8D/J	16f#/
.	16a/JJ
=6	=6
*rep	*
8DD/L	4cc 4a/
8D 8BB/	.
8D/J	8a 8f#/
*Xrep	*
=7	=7
!LO:TX:t=P:problem=mixed beam	!
8GG/L	8gL 8B/
8G\	8b 8d/
8D\J	8aJ 8c/
=8	=8
!LO:TX:t=P:problem=mixed beam	!
8GG/L	4g 4B/
8G\J	.
=:|!|:	=:|!|:
*>B	*>B
8r	8dd 8a\
=9	=9
8D\L	16a\LL
.	16dd\
8d 8A 8F#\	16ff#\
.	16a\
8dJ 8A 8F#\	16dd\
.	16ff#\JJ
=10	=10
*rep	*
8D\L	16dd\LL
.	16ee\
8d 8A 8F#\	16ff#\
.	16gg\
8dJ 8A 8F#\	16aa\
.	16ff#\JJ
*Xrep	*
=11	=11
8AA/	8gg\L
.	8qaa/
8eL 8c 8A\	16gg\L
.	16ff#\
8eJ 8c 8A\	16gg\
.	16bb\JJ
!!LO:LB:g=original
=12	=12
8D\L	8aa\L
8d 8A 8F#\	8ff#\
8dJ 8A 8F#\	8dd\J
=13	=13
*rep	*
8D\L	16a\LL
.	16dd\
8d 8A 8F#\	16ff#\
.	16a\
8dJ 8A 8F#\	16dd\
.	16ff#\JJ
*Xrep	*
=14	=14
*rep	*
8D\L	16dd\LL
.	16ee\
8d 8A 8F#\	16ff#\
.	16gg\
8dJ 8A 8F#\	16aa\
.	16ff#\JJ
*Xrep	*
=15	=15
8AA\L	8gg\L
.	8qaa/
8e 8c 8A\	16gg\L
.	16ff#\
8eJ 8c 8A\	16gg\
.	16bb\JJ
=16	=16
!LO:TX:t=P:problem=mixed beam	!
!LO:TX:a:t=P:problem=w źródle fermata na kresce taktowej	!
!	!LO:TX:a:t=P:problem=w źródle fermata na kresce taktowej
8BL 8G\	4gg\
8GG/\J	.
==:|!;	==:|!;
*-	*-
!!!system-decoration: [(s1,s2)]
!!!RDF**kern: > = above
!!!RDF**kern: < = below
!!!RDF**kern: | = vertical stroke
!!!RDF**kern: N = linked
!!!RDF**kern: i = editorial accidental
!!!RDF**kern: l = terminal long
!!!ENC: Mateusz Solarz
!!!END: 2020-06-17
!!!EED: Wojciech Jakubiak-Danek
!!!EEV: 2022-01-04
!!!YEC: Copyright 2022 Narodowy Instytut Fryderyka Chopina (https://polishscores.org)
!!!YEM: License CC-BY-4.0 (https://creativecommons.org/licenses/by/4.0)
